X:1
T:How to Train Your Dragon
T:How to Train Your Dragon
T:Epic
T:Sean Webb
C:Sean Webb
%%score { 1 | 2 }
L:1/8
M:4/4
K:D
V:1 treble nm="Piano" snm="Pno."
V:2 bass 
V:1
 z8 z4 z2 z A | dAde cAcd | BAAG GFED | [DAd]Ade cAcd | BAAG GFED | %5
 [DAdad'][Aa][dd'][ee'] [cc'][Aa][cc'][dd'] | [Bb][Aa][Aa][Gg] [Gg][Ff][Ee][Dd] | %7
 [DAdad'][Aa][dd'][ee'] [cc'][Aa][cc'][dd'] | [Bb][Aa][Aa][Gg] [Gg][Ff][Ee][Dd] | [Adf]4 [Bg]4 | %10
 [Ge]2 g2 [Af]4- | [Af]2 [Adf]2 [Bg]4 | [Ge][Af][Bg][Af] [Af]4 | z2 [dgb]2 [dgb]2 [eac']2 | %14
 [eac']3 [ca] [df]4- | [df]2 [dgb]2 [dgb]2 [eac']2 | [eac']3 [ca] [df]4 | [FBd]4 [GBd]4 | %18
 [Ace]3 f [Adf]2 [Ae]2 | [df]2 A2 [Bdf]2 a2 | [Ace]3 f [Bdf]2 [Ae]2 | [DFB]fba [Acf]3 e | %22
 [Ace]3 f [E^GB]2 [Bb][cc'] | [dbd']3 [ec'e'] [dbd'][cac'][Bgb][Afa] | [B^gb]4 z2 [Bb][cc'] | %25
 [dbd']3 [ec'e'] [dbd'][cac'][Bgb][Afa] | [B^gb]4 z4 | z8 | z8 | z8 | z8 | z8 | z8 |] %33
V:2
 [D,,D,]3 D,/D,/ D4 D,3/2D,3/2D, D4 | [D,,D,]3 D,/D,/ D4 | D,3/2D,3/2D, D4 | [D,,D,]3 D,/D,/ D4 | %4
 D,3/2D,3/2D, D4 | [D,,D,]3 D,/D,/ [D,A,D]4 | D,3/2D,3/2D, [D,A,D]4 | [D,,D,]3 D,/D,/ [D,A,D]4 | %8
 D,3/2D,3/2D, [D,A,D]4 | [D,,,D,,]D,,D,,D,, D,,D,,D,,D,, | D,,D,,D,,D,, D,,D,,D,,D,, | %11
 [D,,,D,,]D,,D,,D,, D,,D,,D,,D,, | D,,D,,D,,D,, D,,D,,D,,D,, | [D,,,D,,]D,,D,,D,, D,,D,,D,,D,, | %14
 D,,D,,D,,D,, D,,D,,D,,D,, | [D,,,D,,]D,,D,,D,, D,,D,,D,,D,, | D,,D,,D,,D,, D,,D,,D,,D,, | %17
 B,,F, B,2 G,,D, G,2 | A,,E, A,2 D,2 [C,C]2 | B,,F, B,2 G,,D, G,2 | A,,E, A,2 D,2 [C,C]2 | %21
 B,,F, B,2 F,C F2 | A,,E, A,2 E,B, E2 | G,,D,G,D, G,,D,G,D, | E,B,EB, E,B,EB, | %25
 G,,D,G,D, G,,D,G,D, | E,8 | z8 | z8 | z8 | z8 | z8 | z8 |] %33

